src/22/actions/labplot-xy-curve.svg

<svg xmlns="http://www.w3.org/2000/svg" viewBox="0 0 22 22">
  <defs id="defs3051">
    <style type="text/css" id="current-color-scheme">
      .ColorScheme-Text {
        color:#5d656b;
      }
      </style>
  </defs>
 <path 
     style="fill:currentColor;fill-opacity:1;stroke:none" 
     d="M 4 3 L 4 17 L 3 17 L 3 18 L 4 18 L 4 19 L 5 19 L 5 18 L 19 18 L 19 17 L 5 17 L 5 3 L 4 3 z M 6.4101562 3.7128906 L 5.5898438 4.2871094 L 11.0625 12.103516 L 6.7519531 14.566406 L 7.2480469 15.433594 L 11.638672 12.925781 L 12.685547 14.421875 L 18.841797 16.474609 L 19.158203 15.525391 L 13.314453 13.578125 L 12.509766 12.427734 L 14.367188 11.367188 L 18.433594 4.2480469 L 17.566406 3.7519531 L 13.632812 10.632812 L 11.933594 11.603516 L 6.4101562 3.7128906 z "
     class="ColorScheme-Text"
     />
</svg>

<svg xmlns="http://www.w3.org/2000/svg" viewBox="0 0 22 22"><path d="M4 3v14H3v1h1v1h1v-1h14v-1H5V3H4zm2.41.713l-.82.574 5.473 7.817-4.311 2.462.496.868 4.39-2.508 1.048 1.496 6.156 2.053.316-.95-5.844-1.947-.804-1.15 1.857-1.06 4.067-7.12-.868-.496-3.933 6.88-1.7.972L6.41 3.713z" fill="currentColor" color="#5d656b"/></svg>
